X: 30093
T: Oileán Na Meannáin
R: jig
M: 6/8
K: Adorian
~A3 {B}ABd|efg age|ged GAB|dge dBG|
AGA {BAB}ABd|efg age|ged edB|dBG A2e|
~A3 {B}ABd|efg age|ged GAB|dge dBG|
ADA {BAB}ABd|efg age|ged edB|dBG ~A2d||
efg a{b}ag|e.aa gfe|dBd gdB|def ~g3|
~a3 age|Bge {f}edB|def ~g2d|1 edB ~A2d:|2 edB ged|A6||

